.svelte-kit/output/client/media/icons/r.svg

<?xml version="1.0" encoding="UTF-8" standalone="no"?>
<svg
   width="256px"
   height="193px"
   viewBox="0 0 256 193"
   version="1.1"
   preserveAspectRatio="xMidYMid"
   id="svg378"
   sodipodi:docname="r.svg"
   inkscape:version="1.2.2 (b0a84865, 2022-12-01)"
   xmlns:inkscape="http://www.inkscape.org/namespaces/inkscape"
   xmlns:sodipodi="http://sodipodi.sourceforge.net/DTD/sodipodi-0.dtd"
   xmlns="http://www.w3.org/2000/svg"
   xmlns:svg="http://www.w3.org/2000/svg">
  <sodipodi:namedview
     id="namedview380"
     pagecolor="#ffffff"
     bordercolor="#000000"
     borderopacity="0.25"
     inkscape:showpageshadow="2"
     inkscape:pageopacity="0.0"
     inkscape:pagecheckerboard="0"
     inkscape:deskcolor="#d1d1d1"
     showgrid="false"
     inkscape:zoom="1.5119453"
     inkscape:cx="47.29007"
     inkscape:cy="102.51694"
     inkscape:window-width="1440"
     inkscape:window-height="872"
     inkscape:window-x="0"
     inkscape:window-y="0"
     inkscape:window-maximized="0"
     inkscape:current-layer="g376" />
  <defs
     id="defs370">
    <linearGradient
       x1="37.9725688%"
       y1="16.9988952%"
       x2="91.1208363%"
       y2="76.3260008%"
       id="linearGradient-1">
      <stop
         stop-color="#C9CBCE"
         offset="0%"
         id="stop365" />
      <stop
         stop-color="#7B7A81"
         offset="100%"
         id="stop367" />
    </linearGradient>
  </defs>
  <g
     id="g376">
    <path
       id="path372"
       style="fill:#ffffff;fill-opacity:1;stroke-width:0;stroke-dasharray:none"
       d="M 128 0 C 58.667069 0 0 37.332079 0 85.332031 C 0 125.8399 46.568203 160.17642 105.94531 167.0332 L 105.94531 143.125 C 73.567475 133.41189 50.673828 113.35553 50.673828 90.619141 C 50.673828 58.619173 90.667053 32 144 32 C 211.35693 32 242.57227 57.910188 242.57227 89.910156 C 242.57227 108.28205 231.21117 125.13313 210.41797 136.16406 C 211.14682 136.71462 211.86078 137.32662 212.55273 138.0625 C 213.08469 138.58408 214.98459 141.42432 217.36523 145.0918 C 241.04668 130.33272 256 109.48461 256 85.332031 C 256 37.332079 197.33293 0 128 0 z M 172.16797 147.82031 C 165.02922 148.79748 157.41995 149.33203 149.33203 149.33203 C 149.08337 149.33203 148.83815 149.32147 148.58984 149.32031 L 148.58984 167.20312 C 159.46046 166.07188 169.91691 164.06909 179.76367 161.29492 C 177.3524 156.91499 174.89786 152.5025 172.57422 148.51562 C 172.43799 148.26602 172.30376 148.05852 172.16797 147.82031 z " />
    <path
       d="m 105.946,51.829 v 141.109 h 42.643 v -54.875 c 10.661,0 17.011,-2.328 23.986,10.452 10.661,18.292 23.987,44.423 23.987,44.423 H 247.2 c 0,0 -31.982,-52.262 -34.647,-54.875 -4.915,-5.227 -10.661,-5.227 -18.656,-7.84 15.991,-2.613 30.899,-9.248 36.082,-23.464 4.531,-13.065 3.998,-29.685 -5.714,-40.83 -8.411,-8.819 -17.042,-14.1 -38.364,-14.1 z m 42.643,29.388 h 27.984 c 6.636,0 11.993,6.533 11.993,13.065 0,6.533 -5.33,13.066 -11.993,13.066 h -27.984 z"
       fill="#2165B6"
       id="path374"
       style="display:inline;fill:none;fill-opacity:1;stroke:#ffffff;stroke-width:4;stroke-dasharray:none;stroke-opacity:1"
       inkscape:label="path374" />
  </g>
</svg>

<?xml version="1.0" encoding="UTF-8" standalone="no"?>
<svg
   width="256px"
   height="193px"
   viewBox="0 0 256 193"
   version="1.1"
   preserveAspectRatio="xMidYMid"
   id="svg378"
   sodipodi:docname="r.svg"
   inkscape:version="1.2.2 (b0a84865, 2022-12-01)"
   xmlns:inkscape="http://www.inkscape.org/namespaces/inkscape"
   xmlns:sodipodi="http://sodipodi.sourceforge.net/DTD/sodipodi-0.dtd"
   xmlns="http://www.w3.org/2000/svg"
   xmlns:svg="http://www.w3.org/2000/svg">
  <sodipodi:namedview
     id="namedview380"
     pagecolor="#ffffff"
     bordercolor="#000000"
     borderopacity="0.25"
     inkscape:showpageshadow="2"
     inkscape:pageopacity="0.0"
     inkscape:pagecheckerboard="0"
     inkscape:deskcolor="#d1d1d1"
     showgrid="false"
     inkscape:zoom="1.2227979"
     inkscape:cx="-4.0889831"
     inkscape:cy="85.868644"
     inkscape:window-width="1440"
     inkscape:window-height="900"
     inkscape:window-x="0"
     inkscape:window-y="0"
     inkscape:window-maximized="0"
     inkscape:current-layer="svg378" />
  <defs
     id="defs370">
    <linearGradient
       x1="37.9725688%"
       y1="16.9988952%"
       x2="91.1208363%"
       y2="76.3260008%"
       id="linearGradient-1">
      <stop
         stop-color="#C9CBCE"
         offset="0%"
         id="stop365" />
      <stop
         stop-color="#7B7A81"
         offset="100%"
         id="stop367" />
    </linearGradient>
  </defs>
  <g
     id="g376">
    <path
       d="M149.333,149.333 C96,149.333 50.674,122.62 50.674,90.62 C50.674,58.62 90.667,32 144,32 C211.357,32 242.572,57.911 242.572,89.911 C242.572,121.911 208.165,149.333 149.333,149.333 M128,0 C58.667,0 0,37.333 0,85.333 C0,130.667 58.312,168.302 127.646,168.302 C196.979,168.302 256,133.333 256,85.333 C256,37.333 197.333,0 128,0"
       fill="url(#linearGradient-1)"
       id="path372" />
    <path
       d="M105.946,51.829 L105.946,192.938 L148.589,192.938 L148.589,138.063 C159.25,138.063 165.6,135.735 172.575,148.515 C183.236,166.807 196.562,192.938 196.562,192.938 L247.2,192.938 C247.2,192.938 215.218,140.676 212.553,138.063 C207.638,132.836 201.892,132.836 193.897,130.223 C209.888,127.61 224.796,120.975 229.979,106.759 C234.51,93.694 233.977,77.074 224.265,65.929 C215.854,57.11 207.223,51.829 185.901,51.829 L105.946,51.829 L105.946,51.829 Z M148.589,81.217 L176.573,81.217 C183.209,81.217 188.566,87.75 188.566,94.282 C188.566,100.815 183.236,107.348 176.573,107.348 L148.589,107.348 L148.589,81.217 L148.589,81.217 Z"
       fill="#2165B6"
       id="path374"
       style="fill:#ececec" />
  </g>
</svg>
